symbols/web/sailing/materialsymbolsrounded/sailing_wght500gradN25fill1_40px.svg

<svg xmlns="http://www.w3.org/2000/svg" height="40" width="40"><path d="M6.5 22.625q-.5 0-.708-.417-.209-.416.083-.791L16.583 5.833q.334-.458.875-.291.542.166.542.708v15.583q0 .334-.229.563-.229.229-.563.229Zm14.958-.875q.625-2.25.959-4.562.333-2.313.333-4.98 0-2.208-.229-4.333t-.771-4.25q-.208-.958.229-1.333.438-.375 1.229.125 1.792 1.083 3.75 3 1.959 1.916 3.625 4.437 1.667 2.521 2.855 5.521 1.187 3 1.437 6.292.042.375-.25.666-.292.292-.667.292H22.083q-.375 0-.562-.25-.188-.25-.063-.625Zm-2.625 8.708q-.833.709-1.812 1.104-.979.396-2.021.396-1.042 0-2.021-.396-.979-.395-1.812-1.104-.542-.416-1.188-.416-.646 0-1.187.375-.417.291-.854.521-.438.229-.855.395-.916-.625-1.75-1.625-.833-1-1.375-2.166-.333-.75.084-1.334.416-.583 1.291-.583h29.334q.875 0 1.291.583.417.584.125 1.334-.583 1.166-1.416 2.166-.834 1-1.75 1.625-.417-.166-.855-.395-.437-.23-.854-.521-.541-.375-1.187-.375t-1.188.416q-.833.709-1.812 1.104-.979.396-2.021.396-1.042 0-2.021-.396-.979-.395-1.812-1.104-.542-.416-1.167-.416t-1.167.416ZM5 38.5q1.208 0 2.479-.354Q8.75 37.792 10 36.917q1.25.875 2.521 1.229 1.271.354 2.479.354 1.208 0 2.479-.354 1.271-.354 2.521-1.229 1.25.875 2.521 1.229 1.271.354 2.479.354 1.208 0 2.479-.354 1.271-.354 2.521-1.229 1.25.875 2.521 1.229 1.271.354 2.479.354h.292q.583 0 1-.417.416-.416.416-1 0-.625-.416-1.041-.417-.417-1-.417H35q-1.042 0-2.083-.313-1.042-.312-2.042-1.02-.375-.25-.875-.25t-.875.25q-1 .708-2.042 1.02-1.041.313-2.083.313-1.042 0-2.083-.313-1.042-.312-2.042-1.02-.333-.25-.854-.25-.521 0-.896.25-1 .708-2.042 1.02-1.041.313-2.083.313-1.042 0-2.083-.313-1.042-.312-2.042-1.02-.333-.25-.875-.25t-.875.25q-1 .708-2.042 1.02-1.041.313-2.083.313h-.292q-.583 0-1 .417-.416.416-.416 1.041 0 .584.416 1 .417.417 1 .417Z"/></svg>

<svg xmlns="http://www.w3.org/2000/svg" height="40" width="40"><path d="M6.5 22.625Q6 22.625 5.792 22.208Q5.583 21.792 5.875 21.417L16.583 5.833Q16.917 5.375 17.458 5.542Q18 5.708 18 6.25V21.833Q18 22.167 17.771 22.396Q17.542 22.625 17.208 22.625ZM21.458 21.75Q22.083 19.5 22.417 17.188Q22.75 14.875 22.75 12.208Q22.75 10 22.521 7.875Q22.292 5.75 21.75 3.625Q21.542 2.667 21.979 2.292Q22.417 1.917 23.208 2.417Q25 3.5 26.958 5.417Q28.917 7.333 30.583 9.854Q32.25 12.375 33.438 15.375Q34.625 18.375 34.875 21.667Q34.917 22.042 34.625 22.333Q34.333 22.625 33.958 22.625H22.083Q21.708 22.625 21.521 22.375Q21.333 22.125 21.458 21.75ZM18.833 30.458Q18 31.167 17.021 31.562Q16.042 31.958 15 31.958Q13.958 31.958 12.979 31.562Q12 31.167 11.167 30.458Q10.625 30.042 9.979 30.042Q9.333 30.042 8.792 30.417Q8.375 30.708 7.938 30.938Q7.5 31.167 7.083 31.333Q6.167 30.708 5.333 29.708Q4.5 28.708 3.958 27.542Q3.625 26.792 4.042 26.208Q4.458 25.625 5.333 25.625H34.667Q35.542 25.625 35.958 26.208Q36.375 26.792 36.083 27.542Q35.5 28.708 34.667 29.708Q33.833 30.708 32.917 31.333Q32.5 31.167 32.062 30.938Q31.625 30.708 31.208 30.417Q30.667 30.042 30.021 30.042Q29.375 30.042 28.833 30.458Q28 31.167 27.021 31.562Q26.042 31.958 25 31.958Q23.958 31.958 22.979 31.562Q22 31.167 21.167 30.458Q20.625 30.042 20 30.042Q19.375 30.042 18.833 30.458ZM5 38.5Q6.208 38.5 7.479 38.146Q8.75 37.792 10 36.917Q11.25 37.792 12.521 38.146Q13.792 38.5 15 38.5Q16.208 38.5 17.479 38.146Q18.75 37.792 20 36.917Q21.25 37.792 22.521 38.146Q23.792 38.5 25 38.5Q26.208 38.5 27.479 38.146Q28.75 37.792 30 36.917Q31.25 37.792 32.521 38.146Q33.792 38.5 35 38.5H35.292Q35.875 38.5 36.292 38.083Q36.708 37.667 36.708 37.083Q36.708 36.458 36.292 36.042Q35.875 35.625 35.292 35.625H35Q33.958 35.625 32.917 35.312Q31.875 35 30.875 34.292Q30.5 34.042 30 34.042Q29.5 34.042 29.125 34.292Q28.125 35 27.083 35.312Q26.042 35.625 25 35.625Q23.958 35.625 22.917 35.312Q21.875 35 20.875 34.292Q20.542 34.042 20.021 34.042Q19.5 34.042 19.125 34.292Q18.125 35 17.083 35.312Q16.042 35.625 15 35.625Q13.958 35.625 12.917 35.312Q11.875 35 10.875 34.292Q10.542 34.042 10 34.042Q9.458 34.042 9.125 34.292Q8.125 35 7.083 35.312Q6.042 35.625 5 35.625H4.708Q4.125 35.625 3.708 36.042Q3.292 36.458 3.292 37.083Q3.292 37.667 3.708 38.083Q4.125 38.5 4.708 38.5Z"/></svg>
